X:70
T:Giga
C:La Piva dal Carner: La pgra 2d
M:6/8
L:1/8
K:G
d3 c3|B2G GAB|A2A AGA|B2G G2G|\
d3 c3|B2G GAB|A2A ABA|1 G3 G2G:|2 G3 GAB||
|:GAB GAB|A2A ABc|ABc ABc|B2G GAB|\
GAB GAB|A2A ABc|d2c B2A|1 G3 GAB:|2 G3-G3||
